X:2533
T:Heel & Toe Polka. GHW.032
O:england
M:4/4
L:1/4
Q:100
S:George H.Watson,MS,Swanton Abbott,Norfolk,1850-1880
R:Polka
A:Norfolk
K:G
B2B2|AGGG|FGAB|dc c2|c2 c2|BA A2|GFEF|GG G2|
B2BB|AGGG|FGAB|dc c2|cc c2|BA A2|GFEF|GG G2|
|DD G3/4A/4 B|DD G A/B/|d c c2|c B B2|BAEA|GFED|
DD G3/4A/4 B|DD G3/4A/4
B|dc c2|c B B2|BAEF|G2G2||
